icons/underweight_fill.svg

<svg width="48" height="48" viewBox="0 0 48 48" fill="none" xmlns="http://www.w3.org/2000/svg">
<path d="M28.5 8.5C28.5 10.9853 26.4853 13 24 13C21.5147 13 19.5 10.9853 19.5 8.5C19.5 6.01472 21.5147 4 24 4C26.4853 4 28.5 6.01472 28.5 8.5Z" fill="black"/>
<path fill-rule="evenodd" clip-rule="evenodd" d="M32.2683 27.4758C33.0834 27.3276 33.624 26.5467 33.4758 25.7317C33.424 25.4468 33.3555 25.0102 33.2739 24.4905C33.1133 23.4681 32.9022 22.1233 32.6682 20.9753C32.485 20.0769 32.2641 19.1627 31.995 18.4296C31.862 18.0672 31.6938 17.683 31.4744 17.351C31.2847 17.0638 30.8892 16.5556 30.2083 16.3722C25.7676 15.1762 22.2083 15.2312 17.7953 16.4082C17.1154 16.5895 16.719 17.0946 16.528 17.3818C16.3079 17.7129 16.1392 18.096 16.006 18.4568C15.7365 19.1869 15.5154 20.097 15.3322 20.9912C15.0966 22.1411 14.8852 23.483 14.7246 24.5029C14.6439 25.0156 14.576 25.447 14.5242 25.7317C14.376 26.5467 14.9166 27.3276 15.7317 27.4758C16.5468 27.624 17.3276 27.0834 17.4758 26.2683C17.5529 25.8443 17.6321 25.3372 17.7196 24.7773C17.869 23.8201 18.0426 22.7085 18.2711 21.5934C18.446 20.7398 18.6312 20.0082 18.8204 19.4957C18.8645 19.3763 18.9038 19.2826 18.937 19.2108C19.3445 19.1073 19.7426 19.0149 20.1334 18.9337L21 25L19.5 30.5V42.5C19.5 43.3284 20.1716 44 21 44C21.8284 44 22.5 43.3284 22.5 42.5V30.5H25.5V42.5C25.5 43.3284 26.1716 44 27 44C27.8284 44 28.5 43.3284 28.5 42.5V30.5L27 25L27.8716 18.8987C28.2601 18.978 28.6556 19.0692 29.0602 19.1725C29.0939 19.2455 29.1339 19.3412 29.1787 19.4632C29.3683 19.9798 29.5537 20.7164 29.7286 21.5746C29.9566 22.6928 30.1291 23.8014 30.2778 24.7575C30.3661 25.3247 30.446 25.8383 30.5242 26.2683C30.6724 27.0834 31.4533 27.624 32.2683 27.4758ZM28.9546 18.982C28.9545 18.9826 28.9594 18.9898 28.9695 19.0018C28.9598 18.9873 28.9547 18.9813 28.9546 18.982ZM19.0424 19.0209C19.0423 19.0203 19.0374 19.0262 19.0279 19.0403C19.0378 19.0286 19.0425 19.0216 19.0424 19.0209Z" fill="black"/>
</svg>

<svg
  xmlns="http://www.w3.org/2000/svg"
  width="24"
  height="24"
  viewBox="0 0 24 24"
  fill="none"
  stroke="currentColor"
  stroke-width="2"
  stroke-linecap="round"
  stroke-linejoin="round"
>
  <path d="M28.5 8.5a4.5 4.5 0 1 1-9 0 4.5 4.5 0 0 1 9 0" />
  <path
    fill-rule="evenodd"
    d="M32.268 27.476a1.5 1.5 0 0 0 1.208-1.744c-.052-.285-.12-.722-.202-1.241-.16-1.023-.372-2.368-.606-3.516-.183-.898-.404-1.812-.673-2.545a5.3 5.3 0 0 0-.52-1.079c-.19-.287-.586-.795-1.267-.979-4.44-1.196-8-1.14-12.413.036-.68.181-1.076.687-1.267.974a5.2 5.2 0 0 0-.522 1.075c-.27.73-.49 1.64-.674 2.534-.235 1.15-.447 2.492-.607 3.512-.081.513-.149.944-.2 1.229a1.5 1.5 0 1 0 2.95.536c.078-.424.157-.93.245-1.49.149-.958.323-2.07.551-3.185.175-.853.36-1.585.55-2.097q.066-.178.116-.285.61-.156 1.196-.277L21 25l-1.5 5.5v12a1.5 1.5 0 0 0 3 0v-12h3v12a1.5 1.5 0 0 0 3 0v-12L27 25l.872-6.101q.582.119 1.188.273.051.11.119.291c.19.517.375 1.253.55 2.112.228 1.118.4 2.226.549 3.183.088.567.168 1.08.246 1.51a1.5 1.5 0 0 0 1.744 1.208m-3.313-8.494q0 .001.015.02zm-9.913.039q0-.001-.014.02z"
    clip-rule="evenodd"
  />
</svg>
